X: 32379
T: Pipe On The Hob, The
R: jig
M: 6/8
K: Adorian
AB|:c3 edc|edc BAG|A3 g3|eaa ged|
c3 edc|ed^c deg|age dBe|1 A3 AAB:|2 A3 Aef||
|:g3 geg|age dBe|A3 g3|eaa gef|
g3 geg|age deg|age dBe|1 A3 Aef:|2 A3 A2B||
|:c3 dcd|ecA AGE|c3 dcd|ecA A2B|
cBc dcd|ede gab|age dBe|1 A3 A2B:|2 A3 A3||

